X: 117
T:A Farruquiña
M:2/4
L:1/16
Q:100
C:Trad.
S:Rep. Os Campaneiros de Vilagarcía
R:Polca
K:C
c3G AGAB | c2G2 A2B2 |c2Bc dcBA| G3E GFED| {C}C3D EDEF| G3A BcBG | "~"A2
G2- G4- | G6 CD |:
E3C ECEG | FEDC B,>"F."GB,D | F3D FDFA | GFED |C>"F."GCD | E3C ECEG |1 F
EDC B,CDE |FEDC B,CDE|GFED C>"F."GCD :|2 FEDC B,>"F."GB,2 |F2E2 G2F2 |D2
B,2C4- |: C>"F."GCD E3C | ECEG FEDC| B,>"F."GB,D F3D| FDFA GFED |C>"F."G
CD E3C | ECEG FEDC |1 B,CDE FEDC| B,CDE GFED :|2 C>"F."GC
F2E2 | G2F2 D2B,2 | C4 G2 CE |: GFED GFED |"~"A2GE CECE| GFED GFED |"~"C
2B,D C>"F."GCE :| 

